X:234
%%topmargin 3cm
T:Lord Ramsay
C:G. Robertson
O:Scotland
B:Keith Norman MacDonald : "The Skye collection of the best reels & strathspeys extant" : 1887
Z:Ralph Palmer
R:Strathspey
M:C
L:1/8
K:G
g | dA G2 (D<G) | E>A c/B/A/G/ F<A A>g | dA G2 D>G | E>G F/G/A (B<G)G :|
D | (B,/C/D) DG E>GD>G | D>d c/B/A/G/ FAA>C | (B,/C/D) G>D E>G c>e | d>Bc>A B<GG>D |
(B,/C/D) D>G E>GD>G | D>d c/B/A/G/ F<AA>C | B,/C/D G>D (E/F/G) c>e | d>Bc>A B<GG |]
